X:2115
T:Brendan Mulvihill's Choice
R:reel
C:Jerry Holland, SOCAN
O:20th Century Cape Breton
S:Tune of the Month, June 2000
A:<http://www.jerryholland.com>
N:Contacts ...
N:..... Jerry Holland <jerry@cranfordpub.com>
N:Tune books, related recordings
N:..... Cranford Publications <http://www.cranfordpub.com>
H:Copyrights - www.fiddlesticksmusic.com (SOCAN)
Z:Paul Stewart Cranford <psc@cranfordpub.com>
L:1/8
Q:333
M:C|
K:F
B|AFCF CFAF|B,GA,F GG,G,B|AFCF AFcA|BGcB AFF:|!
g|fcAc fgaf|gece cege|fcAc fgaf|gecb affg|!
fcAc fgaf|gece cege|dbca BgAc|BGcB AFF|]!


